assets/offering/stold.svg

<svg width="48" height="48" viewBox="0 0 48 48" fill="none" xmlns="http://www.w3.org/2000/svg">
<mask id="mask0" mask-type="alpha" maskUnits="userSpaceOnUse" x="0" y="0" width="48" height="48">
<path fill-rule="evenodd" clip-rule="evenodd" d="M0 0H47.9999V47.9998H0V0Z" fill="white"/>
</mask>
<g mask="url(#mask0)">
<path fill-rule="evenodd" clip-rule="evenodd" d="M48 24C48 37.255 37.255 48 24 48C10.745 48 0 37.255 0 24C0 10.745 10.745 0 24 0C37.255 0 48 10.745 48 24" fill="#1BE9B6"/>
</g>
<path fill-rule="evenodd" clip-rule="evenodd" d="M33.6281 22.4704H32.6281V14.4964C32.6281 13.7304 31.9451 13.1074 31.1061 13.1074H16.8941C16.0551 13.1074 15.3721 13.7304 15.3721 14.4964V22.4704H14.3721V14.4964C14.3721 13.1794 15.5031 12.1074 16.8941 12.1074H31.1061C32.4961 12.1074 33.6281 13.1794 33.6281 14.4964V22.4704Z" fill="white"/>
<mask id="mask1" mask-type="alpha" maskUnits="userSpaceOnUse" x="0" y="0" width="48" height="48">
<path fill-rule="evenodd" clip-rule="evenodd" d="M0 48H48V0H0V48Z" fill="white"/>
</mask>
<g mask="url(#mask1)">
<path fill-rule="evenodd" clip-rule="evenodd" d="M8.72705 22.4712H39.2741V21.4712H8.72705V22.4712Z" fill="white"/>
<path fill-rule="evenodd" clip-rule="evenodd" d="M14.1077 26.5078V33.0888C14.1077 33.6778 14.3827 34.2128 14.8627 34.5548C15.3427 34.8988 15.9387 34.9848 16.4947 34.7928L24.0007 32.2958L31.5027 34.7918C32.0647 34.9848 32.6597 34.8968 33.1377 34.5548C33.6177 34.2128 33.8927 33.6778 33.8927 33.0888V26.5078H14.1077ZM15.9017 35.8948C15.3307 35.8948 14.7677 35.7168 14.2817 35.3688C13.5357 34.8368 13.1077 34.0048 13.1077 33.0888V25.5078H34.8927V33.0888C34.8927 34.0048 34.4647 34.8368 33.7187 35.3688C32.9727 35.9008 32.0457 36.0358 31.1817 35.7388L24.0007 33.3498L16.8147 35.7408C16.5137 35.8438 16.2067 35.8948 15.9017 35.8948V35.8948Z" fill="white"/>
<path fill-rule="evenodd" clip-rule="evenodd" d="M20.3733 31.2224L16.8413 29.3674L17.3063 28.4814L20.8383 30.3364L20.3733 31.2224Z" fill="white"/>
<path fill-rule="evenodd" clip-rule="evenodd" d="M27.6213 31.2224L27.1562 30.3364L30.6883 28.4814L31.1532 29.3674L27.6213 31.2224Z" fill="white"/>
</g>
</svg>

<svg width="48" height="48" viewBox="0 0 48 48" fill="none" xmlns="http://www.w3.org/2000/svg"><mask id="a" maskUnits="userSpaceOnUse" x="0" y="0" width="48" height="48"><path fill-rule="evenodd" clip-rule="evenodd" d="M0 0h48v48H0V0z" fill="#fff"/></mask><g mask="url(#a)"><path fill-rule="evenodd" clip-rule="evenodd" d="M48 24c0 13.255-10.745 24-24 24S0 37.255 0 24 10.745 0 24 0s24 10.745 24 24" fill="#1BE9B6"/></g><path fill-rule="evenodd" clip-rule="evenodd" d="M33.628 22.47h-1v-7.974c0-.766-.683-1.389-1.522-1.389H16.894c-.839 0-1.522.623-1.522 1.39v7.973h-1v-7.974c0-1.317 1.131-2.389 2.522-2.389h14.212c1.39 0 2.522 1.072 2.522 2.39v7.973z" fill="#fff"/><mask id="b" maskUnits="userSpaceOnUse" x="0" y="0" width="48" height="48"><path fill-rule="evenodd" clip-rule="evenodd" d="M0 48h48V0H0v48z" fill="#fff"/></mask><g mask="url(#b)" fill-rule="evenodd" clip-rule="evenodd" fill="#fff"><path d="M8.727 22.471h30.547v-1H8.727v1zM14.108 26.508v6.58c0 .59.275 1.125.755 1.467.48.344 1.076.43 1.632.238L24 32.296l7.502 2.496a1.782 1.782 0 001.635-.237 1.78 1.78 0 00.755-1.466v-6.581H14.108zm1.794 9.387a2.774 2.774 0 01-1.62-.526 2.77 2.77 0 01-1.174-2.28v-7.581h21.785v7.58a2.77 2.77 0 01-1.174 2.28 2.774 2.774 0 01-2.537.37L24 33.35l-7.186 2.39a2.814 2.814 0 01-.913.155z"/><path d="M20.373 31.222l-3.532-1.855.465-.886 3.532 1.855-.465.886zM27.621 31.222l-.465-.886 3.532-1.855.465.886-3.532 1.855z"/></g></svg>
